img/link-icon-wsj.svg

<svg width="650" height="650" fill="none" xmlns="http://www.w3.org/2000/svg"><path fill="#1C1C21" d="M0 0H650V650H0z"/><path d="M571.131 211.698c0-11.354 2.838-15.005 10.944-17.036l8.925-2.434v-7.304h-83.97v7.304l10.137 2.434c8.111 2.031 12.582 4.869 12.582 16.632v195.131c0 27.179-2.44 49.084-22.719 49.084-12.986 0-22.719-10.142-22.31-17.44 1.207-12.582 22.31-11.764 23.931-32.053 1.217-14.602-8.117-20.689-16.632-21.901-12.577-1.626-27.987 8.92-28.402 30.018-.409 27.178 17.446 51.928 47.873 51.928 33.674 0 59.641-22.719 59.641-66.132V211.698zm-129.047 180.12c0-83.163-91.274-105.068-91.274-165.512 0-12.981 4.869-32.457 25.148-32.457 29.21 0 40.165 37.73 45.034 83.572h7.708v-92.497h-4.869c-2.031 8.925-5.683 12.986-10.95 12.986-9.335 0-14.204-14.607-36.513-14.607-34.483 0-58.015 28.805-58.015 66.53 0 68.56 91.28 97.36 91.28 160.648 0 28.8-13.39 45.028-31.644 45.028-27.179 0-45.029-32.042-49.898-83.566h-7.707v92.491h4.869c4.056-13.385 9.329-14.602 13.788-14.602 7.713 0 15.825 16.229 39.352 16.229 36.109 0 63.691-31.235 63.691-74.243zm-307.029 73.429h16.632l37.725-199.59h-5.677l41.376 199.59h14.608l49.493-235.29c5.273-24.749 8.112-33.265 17.85-35.705l7.708-2.025v-7.304h-57.202v7.304l8.521 1.621c12.168 2.435 15.006 9.738 9.329 39.756l-32.047 157.809h4.869l-32.457-166.325c-3.248-15.825-5.273-28.805 8.116-31.24l8.92-1.621v-7.304h-78.293v7.304l5.273 1.217c8.117 2.025 9.334 6.9 12.576 22.315l12.577 60.444-2.434-36.513-27.992 147.667h3.651l-32.861-162.269c-3.651-16.633-4.869-29.209 8.112-31.644l6.092-1.217v-7.304H59.6v7.304l7.707 2.025c7.299 2.031 11.36 5.683 16.229 27.992l51.519 243.003z" fill="#fff"/></svg>

<svg width="650" height="650" viewBox="0 0 650 650" fill="none" xmlns="http://www.w3.org/2000/svg">
<rect width="650" height="650" fill="#1C1C21"/>
<path d="M571.131 211.698C571.131 200.344 573.969 196.693 582.075 194.662L591 192.228V184.924H507.03V192.228L517.167 194.662C525.278 196.693 529.749 199.531 529.749 211.294V406.425C529.749 433.604 527.309 455.509 507.03 455.509C494.044 455.509 484.311 445.367 484.72 438.069C485.927 425.487 507.03 426.305 508.651 406.016C509.868 391.414 500.534 385.327 492.019 384.115C479.442 382.489 464.032 393.035 463.617 414.133C463.208 441.311 481.063 466.061 511.49 466.061C545.164 466.061 571.131 443.342 571.131 399.929V211.698ZM442.084 391.818C442.084 308.655 350.81 286.75 350.81 226.306C350.81 213.325 355.679 193.849 375.958 193.849C405.168 193.849 416.123 231.579 420.992 277.421H428.7V184.924H423.831C421.8 193.849 418.148 197.91 412.881 197.91C403.546 197.91 398.677 183.303 376.368 183.303C341.885 183.303 318.353 212.108 318.353 249.833C318.353 318.393 409.633 347.193 409.633 410.481C409.633 439.281 396.243 455.509 377.989 455.509C350.81 455.509 332.96 423.467 328.091 371.943H320.384V464.434H325.253C329.309 451.049 334.582 449.832 339.041 449.832C346.754 449.832 354.866 466.061 378.393 466.061C414.502 466.061 442.084 434.826 442.084 391.818ZM135.055 465.247H151.687L189.412 265.657H183.735L225.111 465.247H239.719L289.212 229.957C294.485 205.208 297.324 196.692 307.062 194.252L314.77 192.227V184.923H257.568V192.227L266.089 193.848C278.257 196.283 281.095 203.586 275.418 233.604L243.371 391.413H248.24L215.783 225.088C212.535 209.263 210.51 196.283 223.899 193.848L232.819 192.227V184.923H154.526V192.227L159.799 193.444C167.916 195.469 169.133 200.344 172.375 215.759L184.952 276.203L182.518 239.69L154.526 387.357H158.177L125.316 225.088C121.665 208.455 120.447 195.879 133.428 193.444L139.52 192.227V184.923H59.5996V192.227L67.3072 194.252C74.6056 196.283 78.6667 199.935 83.5357 222.244L135.055 465.247Z" fill="white"/>
</svg>
